X: 3920
T: Blackbird - Joe Derrane, The
R: hornpipe
M: 4/4
K: Dmajor
fe|:dcAF GF D2|(3EFG AB =cBcA|d2 AF GBAG|F2 D2 D2 (3ABc|
dcAF GF D2|(3EFG AB =c3 B|AdcA GBAG|1 F2 D2 D2 (3gfe:|2 F2 D2 D2 z A||
|:defg agfa|gfga gfd2|defg abag|f2 d2 d2 (3efg|
agfa g2 fe|dcde fd e2|dcAF GBAG|1 (3FGF D2 D2:|2 F2 D2 D2 z A||
|:DEFG AB (3 =cBA|d^cde dcAF|D2 (3EFG ABAG|(3FGF D2 D2 z A|
DEFG AB=cA|d^cde fd e2|dcAF GBAG|1 F2 D2 D2 z A:|2 (3FGF D2 D2 fe||

